X: 3
T: Irene Meldrum's Welcome To Bon Accord
Z: atsampson
S: https://thesession.org/tunes/13364#setting24165
R: strathspey
M: 4/4
L: 1/8
K: Dmaj
|: a>g | f>e d<f A>A A>d | B>A d<A B2 A>B | d2 f>d a>f e<d | f2 e2 e2 a>g |
f>e d<f A>A A>d | B>A d<A B2 A>B | d2 c>d e>f a<e | f2 d2 d<d :|
|: f>g | a>g f<a f>e d>e | f<a f<A B2 A>B | d2 f>d a>f e<d | f2 e2 e2 [1 f>g |
a>g f<a f>e d>e | f<a f<A B2 A>B | d2 c>d e>f a<e | f2 d2 d<d :|
[2 a>g | f<a e>f e>d e>f | a>e f<d B2 A>B | d2 c>d e>f a<e | f2 d2 d<d
|: f2 | A<A A>B A>B d>A | B<e d<A B2 A>B | d2 f>d a>f e<d | f2 e2 e2 f2 |
A<A A>B A>B d>A | B<e d<A B2 A>B | d2 c>d e>f a<e | f2 d2 d<d :|
|: f>g | a>g f<a g>f e<g | f>e d<f e>A c<e | d2 f>d a>f e<d | f2 e2 e2 [1 f>g |
a>g f<a g>f e<g | f<a d>f e>A c<e | d2 c>d e>f a<e | f2 d2 d<d :|
[2 a>g | f<a e>f e>d e>f | a>e f<d B2 A>B | d2 c>d e>f a<e | f2 d2 d<d
